icons/desktop/20/lock-20.svg

<svg width="20" height="20" viewBox="0 0 20 20" fill="none" xmlns="http://www.w3.org/2000/svg">
<path fill-rule="evenodd" clip-rule="evenodd" d="M10 0C12.7612 0 15 2.23875 15 5V9.38574C15.0903 9.3997 15.1813 9.41284 15.2725 9.42773C16.8682 9.68862 17.9999 11.0885 18 12.6729V16.3242C17.9999 17.9467 16.8243 19.3228 15.2246 19.5811C13.7031 19.8266 11.9471 20 10 20C8.52355 20 6.73524 19.9 4.72754 19.5723C3.1318 19.3114 2.00007 17.9115 2 16.3271V12.6758C2.00011 11.0533 3.17573 9.67724 4.77539 9.41895C4.84969 9.40696 4.92459 9.39542 5 9.38379V5C5 2.23875 7.23875 0 10 0ZM10 10.75C8.1572 10.75 6.49514 10.914 5.05469 11.1465C4.30055 11.2682 3.75011 11.9145 3.75 12.6758V16.3271C3.75007 17.0864 4.29195 17.7283 5.00977 17.8457C6.91007 18.1559 8.60245 18.25 10 18.25C11.8428 18.25 13.5049 18.086 14.9453 17.8535C15.6994 17.7318 16.2499 17.0855 16.25 16.3242V12.6729C16.2499 11.9136 15.708 11.2717 14.9902 11.1543C13.0899 10.8441 11.3975 10.75 10 10.75ZM10 1.75C8.20525 1.75 6.75 3.20525 6.75 5V9.16211C7.76029 9.06146 8.84661 9 10 9C10.96 9 12.0517 9.04342 13.25 9.16309V5C13.25 3.20525 11.7948 1.75 10 1.75Z" fill="black"/>
</svg>

<!-- This Source Code Form is subject to the terms of the Mozilla Public
   - License, v. 2.0. If a copy of the MPL was not distributed with this
   - file, You can obtain one at http://mozilla.org/MPL/2.0/. -->
<svg xmlns="http://www.w3.org/2000/svg" width="20" height="20" fill="context-fill" fill-opacity="context-fill-opacity" viewBox="0 0 20 20">
    <path fill-rule="evenodd" d="M10 0a5 5 0 0 1 5 5v4.386l.273.042c1.595.26 2.727 1.66 2.727 3.245v3.651a3.3 3.3 0 0 1-2.775 3.257 32.8 32.8 0 0 1-10.497-.009C3.132 19.312 2 17.912 2 16.327v-3.651a3.3 3.3 0 0 1 2.775-3.257L5 9.384V5a5 5 0 0 1 5-5m0 10.75c-1.843 0-3.505.164-4.945.396a1.55 1.55 0 0 0-1.305 1.53v3.651c0 .76.542 1.401 1.26 1.519a31 31 0 0 0 9.935.008 1.55 1.55 0 0 0 1.305-1.53v-3.651c0-.76-.542-1.401-1.26-1.519-1.9-.31-3.592-.404-4.99-.404m0-9A3.25 3.25 0 0 0 6.75 5v4.162a32.8 32.8 0 0 1 6.5.001V5A3.25 3.25 0 0 0 10 1.75" clip-rule="evenodd" />
</svg>
